build/images/ico/children.svg

<?xml version="1.0" encoding="UTF-8"?>
<svg width="32px" height="29px" viewBox="0 0 32 29" version="1.1" xmlns="http://www.w3.org/2000/svg" xmlns:xlink="http://www.w3.org/1999/xlink">
    <title>children-svgrepo-com@1x</title>
    <g id="1.-Design" stroke="none" stroke-width="1" fill="none" fill-rule="evenodd">
        <g id="Článek" transform="translate(-40, -509)" fill="#0B2A84" fill-rule="nonzero">
            <g id="Icons" transform="translate(16, 356)">
                <g id="children-svgrepo-com" transform="translate(24, 153)">
                    <path d="M31.454119,18.0617697 C32.0183065,17.6838785 32.1697818,16.9194524 31.7924766,16.3546105 L27.4909754,9.91339535 C26.9211449,9.0606469 26.050134,8.61604303 25.135639,8.61604303 L23.2924862,8.61604303 C22.2316057,8.61604303 21.3861542,9.25901204 20.8470835,10.0929213 C20.7931985,10.1763677 21.1150698,9.68522003 16.6443898,16.3526158 C16.265978,16.9169036 16.4161256,17.6814405 16.979428,18.0604398 C17.542509,18.4392175 18.3060819,18.2892801 18.6846043,17.7248814 L20.5275358,14.9763607 L20.5312978,27.4615066 C20.5312978,28.3111521 21.218967,28.9998892 22.0672953,28.9998892 C22.9156236,28.9998892 23.6032928,28.3111521 23.6032928,27.4615066 L23.6032928,20.5385634 L24.8322458,20.5385634 L24.8322458,27.4615066 C24.8322458,28.3111521 25.519915,28.9998892 26.3682433,28.9998892 C27.2165716,28.9998892 27.9042408,28.3111521 27.9042408,27.4615066 C27.9042408,14.1925413 27.9005895,15.0539336 27.9005895,14.9539753 L29.7497172,17.7228867 C30.127465,18.288726 30.8912592,18.4391067 31.454119,18.0617697 Z" id="Path"></path>
                    <path d="M24.217714,7.42374667 C25.8437779,7.42374667 27.162576,6.10411984 27.162576,4.47442281 C27.162576,3.41255984 26.6009333,2.48157352 25.7589119,1.9623888 C25.9329592,1.83915861 26.1356639,1.725348 26.375214,1.62804935 C26.4757919,1.58726814 26.5435077,1.49163176 26.5485974,1.38302962 C26.5537978,1.27431666 26.4953763,1.1728069 26.3990031,1.12260612 C25.9332911,0.880356853 25.3657842,0.87537002 24.8302541,0.978209599 C24.9210951,0.807770728 25.0355037,0.633674847 25.1824426,0.457140959 C25.2519287,0.373583801 25.2666447,0.257224364 25.2200624,0.159149982 C25.1734802,0.0609647809 25.0742301,-0.00109358543 24.965575,0 C23.8892039,0.0123154544 22.9021247,1.10509679 22.5088863,1.75859356 C22.4174921,1.91041492 22.3488912,2.07121258 22.3056283,2.23334006 C21.6738356,2.77424521 21.2727413,3.57745778 21.2727413,4.47442281 C21.272852,6.10411984 22.59165,7.42374667 24.217714,7.42374667 Z" id="Path"></path>
                    <path d="M11.1069649,10.0226624 C10.5765246,9.21701182 9.73251154,8.61604303 8.70017781,8.61604303 L6.85691439,8.61604303 C5.80676653,8.61604303 4.89326736,9.2024946 4.42523181,10.0662141 C4.3683594,10.1482198 0.264362554,16.2697235 0.20881791,16.3527266 C-0.169593813,16.9170144 -0.019446238,17.6815513 0.543856125,18.0605507 C1.10693719,18.4393283 1.87051009,18.2893909 2.24903246,17.7249922 L4.09196394,14.9764715 L4.09196394,15.0104928 L2.41920709,21.8411242 C2.34109052,22.1597274 2.41356411,22.4966157 2.61571563,22.754712 C2.8179778,23.0129191 3.12734598,23.1636323 3.45497087,23.1636323 L4.09572593,23.1636323 L4.09572593,27.4616174 C4.09572593,28.311263 4.78339518,29 5.63172345,29 C6.48005172,29 7.16772098,28.311263 7.16772098,27.4616174 L7.16772098,23.1636323 L8.39656326,23.1636323 L8.39656326,27.4616174 C8.39656326,28.311263 9.08423251,29 9.93256078,29 C10.7808891,29 11.4685583,28.311263 11.4685583,27.4616174 L11.4685583,23.1636323 L12.1021213,23.1636323 C12.4297462,23.1636323 12.7391144,23.0129191 12.9413766,22.754712 C13.1435281,22.4966157 13.2160017,22.1597274 13.1378851,21.8411242 L11.4650176,15.0100495 L11.464907,15.0100495 L11.464907,14.9653896 L13.3153624,17.7249922 C13.6938848,18.2895017 14.4575683,18.4392175 15.0205388,18.0605507 C15.5839518,17.6815513 15.7339887,16.9170144 15.355577,16.3527266 C10.8167386,9.58337782 11.1600753,10.1034491 11.1069649,10.0226624 Z" id="Path"></path>
                    <path d="M1.90680221,8.32647426 C2.01501468,8.33545056 2.1183587,8.2805954 2.17191171,8.18595639 C2.98084975,6.75595432 4.24985678,6.87718977 4.53410816,6.34913957 C4.57327709,6.27622099 4.60414752,6.20108604 4.62694074,6.12473208 C4.71357711,6.21826291 4.83550978,6.27322889 4.96374931,6.27322889 C5.0144255,6.27322889 5.06609751,6.26480668 5.1165524,6.2469649 C5.20175037,6.21693308 5.27156843,6.1637402 5.32379368,6.09769236 C5.85080392,6.89669383 6.75500878,7.42385749 7.78247406,7.42385749 C8.80982869,7.42385749 9.71414419,6.89669383 10.2410438,6.09769236 C10.293269,6.1637402 10.3630871,6.21693308 10.4483957,6.2469649 C10.4989613,6.26480668 10.5505226,6.27322889 10.6011988,6.27322889 C10.7294383,6.27322889 10.851371,6.21826291 10.9380074,6.12473208 C10.9608006,6.20108604 10.9915604,6.27622099 11.03084,6.34913957 C11.3149807,6.87718977 12.5839877,6.75595432 13.3929258,8.18595639 C13.4463681,8.2805954 13.5498228,8.33545056 13.6580353,8.32647426 C13.7663584,8.31749796 13.8593016,8.24624166 13.8964789,8.14406699 C14.2648218,7.1311858 13.5925324,5.82042445 13.1206242,5.22111794 C12.7147721,4.70547941 12.0899502,4.42699249 11.5127063,4.73850332 C11.4921261,4.74958517 11.4732055,4.7623293 11.453621,4.7742977 L11.4583788,4.76077784 C11.5428022,4.52030168 11.4165544,4.25688607 11.176451,4.17233155 C11.0128045,4.11459511 10.840085,4.1564845 10.7190375,4.26397846 C10.6110464,2.734683 9.33783476,1.52609632 7.7825847,1.52609632 C6.22711336,1.52609632 4.95390175,2.73479382 4.84602122,4.26408928 C4.72475243,4.15659532 4.55192228,4.11470592 4.38860775,4.17233155 C4.1485044,4.25688607 4.02225652,4.52030168 4.10667995,4.76077784 L4.11143776,4.7742977 C4.09185329,4.76221849 4.07282206,4.74947436 4.05246306,4.73850332 C3.47521922,4.42699249 2.85039729,4.70536859 2.44443454,5.22111794 C1.97252635,5.82042445 1.30023698,7.1311858 1.66857986,8.14406699 C1.70553586,8.24624166 1.79858973,8.31749796 1.90680221,8.32647426 Z" id="Path"></path>
                </g>
            </g>
        </g>
    </g>
</svg>

<svg width="32" height="29" viewBox="0 0 32 29" xmlns="http://www.w3.org/2000/svg"><g fill="#0B2A84" fill-rule="nonzero"><path d="M31.454 18.062a1.232 1.232 0 00.338-1.707l-4.301-6.442c-.57-.852-1.44-1.297-2.355-1.297h-1.844c-1.06 0-1.906.643-2.445 1.477-.054.083.268-.408-4.203 6.26a1.232 1.232 0 00.335 1.707 1.228 1.228 0 001.706-.335l1.843-2.749.003 12.486a1.537 1.537 0 103.072 0v-6.923h1.23v6.923a1.537 1.537 0 103.071 0c0-13.27-.003-12.408-.003-12.508l1.849 2.769a1.227 1.227 0 001.704.339zM24.218 7.424a2.947 2.947 0 002.945-2.95 2.948 2.948 0 00-1.404-2.512c.174-.123.377-.237.616-.334a.278.278 0 00.024-.505C25.933.88 25.366.875 24.83.978c.091-.17.206-.344.352-.52A.279.279 0 0024.966 0c-1.077.012-2.064 1.105-2.457 1.759a1.85 1.85 0 00-.203.474 2.947 2.947 0 001.912 5.19zM11.107 10.023c-.53-.806-1.374-1.407-2.407-1.407H6.857c-1.05 0-1.964.586-2.432 1.45-.057.082-4.16 6.204-4.216 6.287a1.232 1.232 0 00.335 1.708 1.228 1.228 0 001.705-.336l1.843-2.749v.034l-1.673 6.831a1.069 1.069 0 001.036 1.323h.64v4.298a1.537 1.537 0 103.073 0v-4.298h1.229v4.298a1.537 1.537 0 103.072 0v-4.298h.633a1.066 1.066 0 001.036-1.323l-1.673-6.831v-.045l1.85 2.76a1.228 1.228 0 001.706.336 1.232 1.232 0 00.335-1.708c-4.54-6.77-4.196-6.25-4.249-6.33zM1.907 8.326a.278.278 0 00.265-.14c.809-1.43 2.078-1.309 2.362-1.837.04-.073.07-.148.093-.224a.46.46 0 00.49.122.457.457 0 00.207-.15 2.94 2.94 0 004.917 0 .457.457 0 00.697.028c.023.076.054.151.093.224.284.528 1.553.407 2.362 1.837a.278.278 0 00.503-.042c.369-1.013-.303-2.324-.775-2.923-.406-.516-1.031-.794-1.608-.482-.02.01-.04.023-.06.035l.005-.013a.462.462 0 00-.282-.589.458.458 0 00-.457.092 2.947 2.947 0 00-2.936-2.738 2.947 2.947 0 00-2.937 2.738.458.458 0 00-.74.497l.005.013c-.02-.012-.038-.025-.059-.035-.577-.312-1.202-.034-1.608.482-.471.6-1.144 1.91-.775 2.923.037.102.13.173.238.182z"/></g></svg>
